X:1
T:Behold the Wondrous Love
T:Behold the Wondrous Love
T:Ira David Sankey (1840-1908)
T:Frances Jane (Fanny) Crosby (1820-1915)
T:Public Domain Courtesy of the Cyber Hymnal™
T:Public Domain Courtesy of the Cyber Hymnal™
C:Ira David Sankey (1840-1908)
Z:Public Domain
Z:Courtesy of the Cyber Hymnal™
%%score ( 1 2 ) 3
L:1/8
Q:1/4=110
M:4/4
K:C
V:1 treble 
V:2 treble 
V:3 bass 
V:1
 [EG]2 [Ec]3 [Ec] | [CE]2 [DF]2 [FA]2 [EG]2 | [CE]2 [EG]2 [FA]3 [FA] | G2 [Ec]2 [Ec]2 [DB]2 | %4
w: 1.~Be- hold, be-|hold the wond- rous|love, That ev- er|flows from God a-|
w: 2.~Be- hold a|foun- tain in His|side, To all the|world is o- pened|
w: 3.~Be- hold Him|now ex- alt- ed|high A- bove the|bright and star- ry|
w: 4.~Be- hold in|Him the Liv- ing|Way, That on- ward|leads to end- less|
 [Ec]2 [EG]2 [Ec]3 [Ec] | [CE]2 [DF]2 [FA]2 [EG]2 | [CE]2 [Ec]2 [DB]3 [DB] | %7
w: bove Through Christ His|on- ly Son, Who|gave His pre- cious|
w: wide; Where all may|come, by sin op-|pressed, And find in|
w: sky; Yet through His|Word He cal- leth|still, “Come un- to|
w: day; Where, saved by|grace, the ran- somed|throng Lift up the|
 [Dc]2 [DA]2 [DG]2 [D^F]2 | [DG]4 z ||"^Refrain" GGG | [Fd]2 [Fd]3 [Fd][Ec][Fd] | %11
w: blood our souls to|save.|||
w: Him sweet peace and|rest.|All praise and|glo- ry be un- to|
w: Me,” who- ev- er|will.|||
w: ev- er- last- ing|song.|||
 [Ge]2 [Ec]3 [EG][EG][EG] | [FA]2 [Fc]3 [Fc][FB][FA] | [FA]2 [EG]3 GGG | [Fd]2 [Fd]3 [Fd][Ec][Fd] | %15
w: ||||
w: Je- sus For He hath|pur- chased a full sal-|va- tion; Be- hold how|wond- rous the pro- cla-|
w: ||||
w: ||||
 [Ge]2 [Ec]4 [EG]G | [FA]3 [Fc] [Ec]2 [DB]2 | [Ec]4 |] %18
w: |||
w: ma- tion, “Who- so-|ev- er will may|come!”|
w: |||
w: |||
V:2
 x6 | x8 | x8 | G2 x6 | x8 | x8 | x8 | x8 | x5 || GGG | x8 | x8 | x8 | x5 GGG | x8 | x8 | x8 | %17
 x4 |] %18
V:3
 [C,G,]2 [C,G,]3 [C,G,] | [C,G,]2 [C,G,]2 [C,C]2 [C,C]2 | [C,G,]2 [C,C]2 [F,C]3 [F,C] | %3
 [E,C]2 [C,G,]2 G,2 [G,,G,]2 | [C,G,]2 [C,G,]2 [C,G,]3 [C,G,] | [C,G,]2 [C,G,]2 [C,C]2 [C,C]2 | %6
 [C,G,]2 [C,G,]2 [D,G,]3 [D,G,] | [D,A,]2 [D,C]2 [D,B,]2 [D,A,]2 | [G,B,]4 z || G,G,G, | %10
 [G,B,]2 [G,B,]3 [G,B,][G,C][G,B,] | [C,C]2 [C,G,]3 [C,C][C,C][C,C] | %12
 [F,C]2 [F,A,]3 [F,A,][F,B,][F,C] | [C,C]2 [C,C]3 G,G,G, | [G,B,]2 [G,B,]3 [G,B,][G,C][G,B,] | %15
 [C,C]2 [C,G,]4 [C,C][E,C] | [F,C]3 [F,A,] G,2 [G,,G,]2 | [C,G,]4 |] %18

